americans/img/token-stats-inner.svg

<svg width="488" height="388" viewBox="0 0 488 388" fill="none" xmlns="http://www.w3.org/2000/svg">
<path d="M15.0154 4.92857V0H243H472.985V4.92857H15.0154Z" fill="#FFF8DC"/>
<path d="M15.0154 382.071V387.5H243.5H472.985V382.071H15.0154Z" fill="#FFF8DC"/>
<path d="M0 33.2143H5.00513V358.5H0V33.2143Z" fill="#FFF8DC"/>
<path d="M5.00513 19.0714H10.0103V33.2143H5.00513V19.0714Z" fill="#FFF8DC"/>
<path d="M10.0103 4.92857H15.0154V19.0714H10.0103V4.92857Z" fill="#FFF8DC"/>
<path d="M0 353.786H5.00513V28.5H0V353.786Z" fill="#FFF8DC"/>
<path d="M5.00513 367.929H10.0103V353.786H5.00513V367.929Z" fill="#FFF8DC"/>
<path d="M10.0103 382.071H15.0154V367.929H10.0103V382.071Z" fill="#FFF8DC"/>
<path d="M488 33.2143H482.995V358.5H488V33.2143Z" fill="#FFF8DC"/>
<path d="M482.995 19.0714H477.99V33.2143H482.995V19.0714Z" fill="#FFF8DC"/>
<path d="M477.99 4.92857H472.985V19.0714H477.99V4.92857Z" fill="#FFF8DC"/>
<path d="M488 353.786H482.995V28.5H488V353.786Z" fill="#FFF8DC"/>
<path d="M482.995 367.929H477.99V353.786H482.995V367.929Z" fill="#FFF8DC"/>
<path d="M477.99 382.071H472.985V367.929H477.99V382.071Z" fill="#FFF8DC"/>
</svg>

<svg width="488" height="388" fill="none" xmlns="http://www.w3.org/2000/svg"><path d="M15.015 4.929V0h457.97v4.929H15.015ZM15.015 382.071v5.429h457.97v-5.429H15.015ZM0 33.214h5.005V358.5H0V33.214ZM5.005 19.071h5.005v14.143H5.005V19.071ZM10.01 4.929h5.005V19.07H10.01V4.93Z" fill="#FFF8DC"/><path d="M0 353.786h5.005V28.5H0v325.286ZM5.005 367.929h5.005v-14.143H5.005v14.143ZM10.01 382.071h5.005v-14.142H10.01v14.142ZM488 33.214h-5.005V358.5H488V33.214ZM482.995 19.071h-5.005v14.143h5.005V19.071ZM477.99 4.929h-5.005V19.07h5.005V4.93Z" fill="#FFF8DC"/><path d="M488 353.786h-5.005V28.5H488v325.286ZM482.995 367.929h-5.005v-14.143h5.005v14.143ZM477.99 382.071h-5.005v-14.142h5.005v14.142Z" fill="#FFF8DC"/></svg>
